svgs/thin/file-magnifying-glass.svg

<svg xmlns="http://www.w3.org/2000/svg" viewBox="0 0 384 512"><!-- Font Awesome Pro 6.0.0-alpha2 by @fontawesome - https://fontawesome.com License - https://fontawesome.com/license (Commercial License) --><path d="M374.629 150.625L233.371 9.375C227.371 3.371 219.23 0 210.746 0H64C28.652 0 0 28.652 0 64V448C0 483.344 28.652 512 64 512H320C355.348 512 384 483.344 384 448V173.254C384 164.766 380.629 156.629 374.629 150.625ZM224 22.629L361.375 160H248C234.781 160 224 149.234 224 136V22.629ZM368 448C368 474.469 346.469 496 320 496H64C37.531 496 16 474.469 16 448V64C16 37.531 37.531 16 64 16H208V136C208 158.062 225.938 176 248 176H368V448ZM176 208C122.98 208 80 250.98 80 304S122.98 400 176 400C199.619 400 220.963 391.141 237.684 376.996L306.344 445.656C307.906 447.219 309.938 448 312 448S316.094 447.219 317.656 445.656C320.781 442.531 320.781 437.469 317.656 434.344L248.996 365.684C263.143 348.961 272 327.617 272 304C272 250.98 229.02 208 176 208ZM176 384C131.889 384 96 348.113 96 304S131.889 224 176 224S256 259.887 256 304S220.111 384 176 384Z"/></svg>

<svg xmlns="http://www.w3.org/2000/svg" viewBox="0 0 384 512"><!--! Font Awesome Pro 6.3.0 by @fontawesome - https://fontawesome.com License - https://fontawesome.com/license (Commercial License) Copyright 2023 Fonticons, Inc. --><path d="M374.6 150.6l-141.3-141.3C227.4 3.371 219.2 0 210.7 0H64C28.65 0 0 28.65 0 64l.0065 384c0 35.34 28.65 64 64 64H320c35.35 0 64-28.66 64-64V173.3C384 164.8 380.6 156.6 374.6 150.6zM224 22.63L361.4 160H248C234.8 160 224 149.2 224 136V22.63zM368 448c0 26.47-21.53 48-48 48H64c-26.47 0-48-21.53-48-48V64c0-26.47 21.53-48 48-48h144v120c0 22.06 17.94 40 40 40h120V448zM176 208c-53.02 0-96 42.98-96 96s42.98 96 96 96c23.62 0 44.96-8.859 61.68-23l68.66 68.66C307.9 447.2 309.9 448 312 448s4.094-.7813 5.656-2.344c3.125-3.125 3.125-8.188 0-11.31l-68.66-68.66C263.1 348.1 272 327.6 272 304C272 250.1 229 208 176 208zM176 384C131.9 384 96 348.1 96 304S131.9 224 176 224S256 259.9 256 304S220.1 384 176 384z"/></svg>
